!!!Melodie: eigene
!!!Typ: Lied
**kern	**silbe	**silbe	**silbe	**silbe	**silbe	**silbe	**silbe	**silbe	**silbe	**silbe	**silbe	**silbe	**silbe	**silbe	**silbe
*clefG2	*lang:DE	*lang:DE	*lang:DE	*lang:DE	*lang:DE	*lang:DE	*lang:DE	*lang:DE	*lang:DE	*lang:DE	*lang:DE	*lang:DE	*lang:DE	*lang:DE	*lang:DE
*M4/4	*	*	*	*	*	*	*	*	*	*	*	*	*	*	*
*met(c)	*	*	*	*	*	*	*	*	*	*	*	*	*	*	*
4cc	Vom	Euch	Es	Er	So	Des	Merk	Bist’	Ach!	Und	Der	Das	Ach!	Da#	Lob,
=	=	=	=	=	=	=	=	=	=	=	=	=	=	=	=
4b	Him#	ist	ist	bringt	mer#	lasst	auf,	will#	Herr,	wär’	Sam#	hat	mein	#von	Ehr’
4a	#mel	ein	der	euch	#ket	uns	mein	#kom#	du	die	#met	al#	herz#	ich	sei
4b	hoch,	Kind#	Herr	al#	nun	al#	Herz,	#men,	Schöp#	Welt	und	#so	#lie#	all#	Gott
4g	da	#lein	Christ,	#le	das	#le	und	du	#fer	viel#	die	ge#	#bes	#zeit	im
=	=	=	=	=	=	=	=	=	=	=	=	=	=	=	=
4a	komm’	heut’	un#	See#	Zei#	fröh#	sieh	ed#	al#	#mal	Sei#	#fal#	Je#	fröh#	höch#
4b	ich	ge#	#ser	#lig#	#chen	#lich	dort	#ler	#ler	so	#den	#len	#su#	#lich	#sten
4;cc	her,	#bor'n,	Gott,	#keit,	recht,	sein	hin,	Gast,	Ding’,	weit,	dein,	dir,	#lein,	sei,	Thron,
4cc	ich	von	der	die	die	und	was	den	wie	von	das	die	mach	zu	der
=	=	=	=	=	=	=	=	=	=	=	=	=	=	=	=
4cc	bring	ei#	will	Gott	Krip#	mit	liegt	Sün#	bist	Ed’l#	ist	Wahr#	dir	sprin#	uns
4g	euch	#ner	euch	der	#pe,	den	doch	#der	du	#ge#	grob’	#heit	ein	#gen,	schenkt
4g	gu#	Jung#	führ’n	Va#	Win#	Hir#	in	nicht	wor#	#stein	Heu	an#	rein’	sin#	sei#
4e	#te	#frau	aus	#ter	#de#	#ten	dem	ver#	#den	und	und	#zu#	sanft’	#gen	#nen
=	=	=	=	=	=	=	=	=	=	=	=	=	=	=	=
4g	neu#	aus#	al#	hat	#lein	geh’n	Krip#	#schmä#	so	Gold	Win#	#zei#	Bet#	im#	eig#
4f	#e	#er#	#ler	be#	so	hi#	#pe#	#het	ge#	be#	#de#	#gen	#te#	#mer	#'nen
4;e	Mär’;	#kor'n,	Not,	#reit',	schlecht,	#nein,	#lein?	hast	#ring,	#reit',	#lein,	mir,	#lein,	frei,	Sohn!
4e	der	ein	er	dass	da	zu	Wes	und	dass	so	da#	wie	zu	das	Des
=	=	=	=	=	=	=	=	=	=	=	=	=	=	=	=
4a	gu#	Kin#	will	ihr	fin#	sehn,	ist	kommst	du	wär	#rauf	al#	ruh’n	rech#	freu#
4a	#ten	#de#	eu’r	mit	#det	was	das	ins	da	sie	du	#ler	in	#te	#et
4g	Mär’;	#lein	Hei#	uns	ihr	Gott	schö#	E#	liegst	doch	Kö#	Welt	mei#	Su#	sich
4b	bring’	so	#land	im	das	uns	#ne	#lend	auf	dir	#nig	Macht,	#nes	#sa#	der
=	=	=	=	=	=	=	=	=	=	=	=	=	=	=	=
4cc	ich	zart	sel#	Him#	Kind	hat	Kin#	her	dür#	viel	groß	Ehr’	Her#	#nin#	En#
4a	so	und	#ber	#mel#	ge#	be#	#de#	zu	#rem	zu	und	und	#zens	#ne	#gel
4;g	viel,	fein,	sein,	#reich	#legt,	#schert,	#lein?	mir:	Gras,	klein,	reich	Gut	Schrein,	schön,	Schar
4cc	da#	das	von	sollt	das	mit	Es	wie	da#	zu	her#	vor	dass	mit	und
=	=	=	=	=	=	=	=	=	=	=	=	=	=	=	=
4b	#von	soll	al#	le#	al#	sei#	ist	soll	#von	sein	#prangst,	dir	ich	Her#	sing#
4a	ich	eu'r	#len	#ben	#le	#nem	das	ich	ein	ein	als	nichts	nim#	#zens#	#et
4g	sing'n	Freud’	Sün#	nun	Welt	lie#	lie#	im#	Rind	eng#	wär's	gilt,	#mer	#lust	uns
4a	und	und	#den	und	er#	#ben	#be	#mer	und	#es	dein	nichts	ver#	den	solch’
=	=	=	=	=	=	=	=	=	=	=	=	=	=	=	=
8Lf	sa#	Won#	ma#	e#	#hält	Sohn	Je#	dan#	E#	Wie#	Him#	hilft	#ges#	sü#	neu#
8Je	|	|	|	|	|	|	|	|	|	|	|	|	|	|	|
4d	#gen	#ne	#chen	#wig#	und	ver#	#su#	#ken	#sel	#ge#	#mel#	noch	#se	#ßen	#es
4;cc	will.	sein.	rein.	#lich.	trägt.	#ehrt.	#lein.	dir!	aß!	#lein.	#reich.	tut.	dein.	Ton.	Jahr.
==	==	==	==	==	==	==	==	==	==	==	==	==	==	==	==
*-	*-	*-	*-	*-	*-	*-	*-	*-	*-	*-	*-	*-	*-	*-	*-
